lg/aws-waf.svg

<svg viewBox="0 0 256 256" version="1.1" xmlns="http://www.w3.org/2000/svg" preserveAspectRatio="xMidYMid" height="1em" width="1em">
  <defs>
    <linearGradient x1="0%" y1="100%" x2="100%" y2="0%" id="a">
      <stop stop-color="#BD0816" offset="0%"/>
      <stop stop-color="#FF5252" offset="100%"/>
    </linearGradient>
  </defs>
  <g>
    <rect fill="url(#a)" x="0" y="0" width="256" height="256"/>
    <path d="M46.0656,131.2 L38.3984,131.2 L38.3984,124.8 L46.0752,124.8 C46.7152,108.6112 51.9632,93.2096 61.464,80.08 L66.6512,83.8336 C57.944,95.8624 53.112,109.9712 52.4752,124.8 L60.7984,124.8 L60.7984,131.2 L52.4656,131.2 C53.0608,146.1184 57.896,160.3104 66.6512,172.4032 L61.464,176.1568 C51.9152,162.9632 46.664,147.472 46.0656,131.2 L46.0656,131.2 Z M176.0304,194.6496 C162.872,204.176 147.4288,209.424 131.1984,210.0448 L131.1984,217.6 L124.7984,217.6 L124.7984,210.0448 C108.568,209.424 93.1184,204.176 79.96,194.6496 L83.7104,189.4656 C95.7744,198.1984 109.9248,203.0304 124.7984,203.6448 L124.7984,195.2 L131.1984,195.2 L131.1984,203.6448 C146.072,203.0272 160.2192,198.1952 172.28,189.4656 L176.0304,194.6496 Z M79.96,61.5872 C93.1184,52.0608 108.568,46.8128 124.7984,46.1952 L124.7984,38.4 L131.1984,38.4 L131.1984,46.1952 C147.4288,46.8128 162.872,52.064 176.0304,61.5872 L172.28,66.7712 C160.2192,58.0416 146.072,53.2096 131.1984,52.5952 L131.1984,60.8 L124.7984,60.8 L124.7984,52.5952 C109.9248,53.2064 95.7744,58.0416 83.7104,66.7712 L79.96,61.5872 Z M217.5984,124.8 L217.5984,131.2 L209.9248,131.2 C209.3296,147.472 204.0752,162.9632 194.5296,176.1568 L189.3392,172.4032 C198.0944,160.3104 202.9328,146.1184 203.5248,131.2 L195.1984,131.2 L195.1984,124.8 L203.5152,124.8 C202.8784,109.9712 198.0464,95.8624 189.3392,83.8336 L194.5296,80.08 C204.0272,93.2096 209.2752,108.6112 209.9152,124.8 L217.5984,124.8 Z M175.9088,75.68 L200.9968,50.592 L205.5216,55.1168 L180.4336,80.2048 L175.9088,75.68 Z M80.0816,180.5568 L54.9936,205.6448 L50.4688,201.12 L75.5568,176.032 L80.0816,180.5568 Z M87.2048,91.7344 L39.7168,44.2464 L44.2416,39.7216 L91.7328,87.2096 L87.2048,91.7344 Z M168.6608,164.1376 L216.2736,211.7536 L211.7488,216.2784 L164.1328,168.6656 L168.6608,164.1376 Z M101.3232,130.352 C101.5632,129.9264 101.8224,129.4976 102.0944,129.0688 C107.4736,120.6176 105.9312,109.0848 104.2224,102.1184 C108.8336,105.1488 112.9904,111.4112 114.408,114.0416 C115.0128,115.1552 116.1872,115.8304 117.4768,115.7152 C118.7408,115.616 119.8256,114.784 120.248,113.5904 C125.0128,100.0544 122.5904,89.8784 119.2304,83.2832 C123.304,85.6544 126.4592,89.0656 128.5488,93.4144 C133.08,102.8288 132.072,115.7152 125.912,127.04 C117.4992,142.5152 119.1856,158.7392 121.0992,167.4688 C116.296,165.3984 112.0208,163.0592 108.3312,160.4864 C98.6448,153.7344 95.5632,140.5024 101.3232,130.352 L101.3232,130.352 Z M144.2992,129.2736 C144.0912,130.5824 144.7056,131.8848 145.8512,132.5504 C146.9936,133.2128 148.4336,133.1072 149.4672,132.2752 C149.7264,132.0672 154.9744,127.7344 157.5152,117.2544 C160.5776,121.7088 163.7808,130.6976 159.5184,147.2096 C155.3008,163.5456 135.2944,168.1408 128.1552,169.2704 C126.4304,163.0848 122.9328,145.9168 131.5376,130.096 C137.6432,118.864 139.2624,106.1632 136.2032,95.6832 C141.9952,102.4864 146.8816,113.1936 144.2992,129.2736 L144.2992,129.2736 Z M95.7488,127.2 C88.3824,140.192 92.2992,157.1168 104.6704,165.7376 C110.2704,169.6416 117.0544,173.0304 124.8304,175.8112 C125.1856,175.9392 125.5472,176 125.9088,176 C125.976,176 126.0336,175.9648 126.0976,175.9616 L126.1008,175.9904 C127.4608,175.8848 159.4416,173.1072 165.7136,148.8096 C173.784,117.5584 157.6208,108.288 156.9296,107.9072 C155.992,107.3952 154.856,107.3824 153.9056,107.8784 C152.9552,108.3776 152.3184,109.3184 152.2096,110.384 C151.9824,112.544 151.6272,114.4672 151.1984,116.1664 C148.984,91.6288 129.5312,81.6448 125.5984,79.8688 C121.5664,76.7808 116.664,74.6592 110.9808,73.6512 C109.5536,73.392 108.1392,74.1376 107.5312,75.4496 C106.9168,76.7584 107.2656,78.3264 108.3728,79.2576 C108.8528,79.664 118.824,88.3104 115.9792,104.7648 C112.264,99.8912 106.3504,94.016 99.3936,94.016 C98.3376,94.016 97.352,94.5376 96.7568,95.408 C96.1584,96.2784 96.0304,97.3888 96.408,98.3712 C96.4784,98.544 103,115.7312 96.6928,125.6352 C96.36,126.16 96.0432,126.6848 95.7488,127.2 L95.7488,127.2 Z" fill="#FFFFFF"/>
  </g>
</svg>

<svg viewBox="0 0 256 256" xmlns="http://www.w3.org/2000/svg" preserveAspectRatio="xMidYMid" height="1em" width="1em">
  <defs>
    <linearGradient x1="0%" y1="100%" x2="100%" y2="0%" id="a">
      <stop stop-color="#BD0816" offset="0%"/>
      <stop stop-color="#FF5252" offset="100%"/>
    </linearGradient>
  </defs>
  <path fill="url(#a)" d="M0 0h256v256H0z"/>
  <path d="M46.066 131.2h-7.668v-6.4h7.677c.64-16.189 5.888-31.59 15.389-44.72l5.187 3.754C57.944 95.862 53.112 109.97 52.475 124.8h8.323v6.4h-8.332c.595 14.918 5.43 29.11 14.185 41.203l-5.187 3.754c-9.549-13.194-14.8-28.685-15.398-44.957Zm129.964 63.45c-13.158 9.526-28.601 14.774-44.832 15.395v7.555h-6.4v-7.555c-16.23-.621-31.68-5.869-44.838-15.395l3.75-5.184c12.064 8.732 26.215 13.564 41.088 14.179V195.2h6.4v8.445c14.874-.618 29.021-5.45 41.082-14.18l3.75 5.185ZM79.96 61.587c13.158-9.526 28.608-14.774 44.838-15.392V38.4h6.4v7.795c16.23.618 31.674 5.869 44.832 15.392l-3.75 5.184c-12.06-8.73-26.208-13.561-41.082-14.176V60.8h-6.4v-8.205c-14.873.611-29.024 5.447-41.088 14.176l-3.75-5.184ZM217.598 124.8v6.4h-7.673c-.595 16.272-5.85 31.763-15.395 44.957l-5.19-3.754c8.754-12.093 13.593-26.285 14.185-41.203h-8.327v-6.4h8.317c-.637-14.829-5.469-28.938-14.176-40.966l5.19-3.754c9.498 13.13 14.746 28.531 15.386 44.72h7.683Zm-41.69-49.12 25.089-25.088 4.525 4.525-25.088 25.088-4.525-4.525ZM80.083 180.557l-25.088 25.088-4.525-4.525 25.088-25.088 4.525 4.525Zm7.123-88.823L39.717 44.246l4.525-4.524 47.49 47.488-4.527 4.524Zm81.456 72.404 47.613 47.616-4.525 4.524-47.616-47.612 4.528-4.528Zm-67.338-33.786c.24-.426.5-.854.771-1.283 5.38-8.451 3.837-19.984 2.128-26.95 4.612 3.03 8.768 9.292 10.186 11.923.605 1.113 1.78 1.788 3.069 1.673a3.203 3.203 0 0 0 2.771-2.125c4.765-13.536 2.342-23.712-1.018-30.307 4.074 2.371 7.23 5.783 9.319 10.131 4.531 9.415 3.523 22.301-2.637 33.626-8.413 15.475-6.726 31.7-4.813 40.429-4.803-2.07-9.078-4.41-12.768-6.983-9.686-6.752-12.768-19.984-7.008-30.134Zm42.976-1.078a3.205 3.205 0 0 0 1.552 3.276 3.207 3.207 0 0 0 3.616-.275c.26-.208 5.507-4.54 8.048-15.02 3.063 4.454 6.266 13.443 2.003 29.955-4.217 16.336-24.224 20.93-31.363 22.06-1.725-6.185-5.222-23.353 3.383-39.174 6.105-11.232 7.724-23.933 4.665-34.413 5.792 6.803 10.679 17.51 8.096 33.59ZM95.75 127.2c-7.367 12.992-3.45 29.917 8.921 38.538 5.6 3.904 12.384 7.292 20.16 10.073a3.17 3.17 0 0 0 1.079.189c.067 0 .125-.035.189-.038l.003.028c1.36-.105 33.34-2.883 39.613-27.18 8.07-31.252-8.093-40.522-8.784-40.903a3.198 3.198 0 0 0-4.72 2.477 41.257 41.257 0 0 1-1.012 5.782c-2.214-24.537-21.667-34.521-25.6-36.297-4.032-3.088-8.934-5.21-14.617-6.218a3.18 3.18 0 0 0-3.45 1.799 3.207 3.207 0 0 0 .842 3.808c.48.406 10.451 9.052 7.606 25.507-3.715-4.874-9.629-10.749-16.585-10.749a3.205 3.205 0 0 0-2.986 4.355c.07.173 6.592 17.36.285 27.264a39.87 39.87 0 0 0-.944 1.565Z" fill="#FFF"/>
</svg>
